assets/images/logo-facebook-white.svg

<svg id="Logo" xmlns="http://www.w3.org/2000/svg" viewBox="0 0 512 512"><defs><style>.cls-1{fill:#fff;filter:drop-shadow(3px 3px 5px rgba(0,0,0,0.4));}</style></defs><title>logo-facebook-white</title><path class="cls-1" d="M512,256C512,114.61,397.39,0,256,0S0,114.61,0,256C0,383.78,93.62,489.68,216,508.89V330H151V256h65V199.6c0-64.16,38.22-99.6,96.7-99.6,28,0,57.3,5,57.3,5v63H337.72c-31.8,0-41.72,19.73-41.72,40v48h71l-11.35,74H296V508.89C418.38,489.68,512,383.78,512,256Z"/></svg>

<svg width="512" height="512" viewBox="0 0 512 512" fill="none" xmlns="http://www.w3.org/2000/svg">
<path d="M512 256C512 114.61 397.39 0 256 0C114.61 0 0 114.61 0 256C0 383.78 93.62 489.68 216 508.89V330H151V256H216V199.6C216 135.44 254.22 100 312.7 100C340.7 100 370 105 370 105V168H337.72C305.92 168 296 187.73 296 208V256H367L355.65 330H296V508.89C418.38 489.68 512 383.78 512 256Z" fill="white"/>
</svg>
